U-commodities/img/icons/money.svg

<svg width="50" height="50" viewBox="0 0 50 50" fill="none" xmlns="http://www.w3.org/2000/svg">
<path d="M44.043 5.5H5.95703C5.70439 5.5 5.5 5.70511 5.5 5.95863V26.3421C5.5 26.5956 5.70439 26.8008 5.95703 26.8008H44.043C44.2956 26.8008 44.5 26.5956 44.5 26.3421V5.95863C44.5 5.70511 44.2956 5.5 44.043 5.5ZM43.5859 10.5475C41.4087 10.3283 39.6885 8.60211 39.4688 6.41726H43.5859V10.5475ZM43.5859 11.4634V20.8309C40.9034 21.0564 38.777 23.1903 38.5535 25.8835H11.4465C11.2243 23.1903 9.09785 21.0564 6.41406 20.8309V11.4634C9.09531 11.2392 11.2205 9.1066 11.4452 6.41598H38.5535C38.7795 9.10788 40.9047 11.2392 43.5859 11.4634ZM10.5324 6.41726C10.3128 8.60211 8.59258 10.3283 6.41406 10.5475V6.41726H10.5324ZM6.41406 21.7482C8.59385 21.9673 10.3153 23.6961 10.5324 25.8835H6.41406V21.7482ZM39.4688 25.8835C39.6859 23.6961 41.4074 21.9673 43.5859 21.7482V25.8835H39.4688ZM25 8.04539C20.5478 8.04539 16.9258 11.68 16.9258 16.1478C16.9258 20.6156 20.5478 24.2503 25 24.2503C29.4522 24.2503 33.0742 20.6156 33.0742 16.1478C33.0742 11.68 29.4522 8.04539 25 8.04539ZM30.737 11.8673H28.6347C28.3122 10.8685 27.8831 10.0175 27.3689 9.37541C28.7261 9.85442 29.8928 10.7309 30.737 11.8673ZM17.8627 16.6065H20.7458C20.775 17.6435 20.9007 18.6219 21.1089 19.5111H18.6765C18.2118 18.6346 17.9287 17.6498 17.8627 16.6065ZM25.457 11.8673V9.04036C26.3482 9.31426 27.1379 10.3717 27.666 11.8673H25.457ZM27.9466 12.7846C28.1713 13.6649 28.3071 14.6522 28.3401 15.6892H25.457V12.7846H27.9466ZM24.543 9.04036V11.8673H22.334C22.8621 10.3717 23.6518 9.31554 24.543 9.04036ZM24.543 12.7846V15.6892H21.6599C21.6929 14.6522 21.8287 13.6649 22.0534 12.7846H24.543ZM20.7458 15.6892H17.8627C17.9287 14.6458 18.2118 13.661 18.6765 12.7846H21.1089C20.9007 13.6738 20.775 14.6522 20.7458 15.6892ZM21.6599 16.6065H24.543V19.5111H22.0534C21.8287 18.6308 21.6916 17.6435 21.6599 16.6065ZM24.543 20.4284V23.2553C23.6518 22.9814 22.8621 21.9253 22.3327 20.4284H24.543ZM25.457 23.2553V20.4284H27.666C27.1366 21.924 26.3482 22.9801 25.457 23.2553ZM25.457 19.5111V16.6065H28.3401C28.3071 17.6435 28.1713 18.6308 27.9466 19.5111H25.457ZM29.2542 16.6065H32.136C32.07 17.6498 31.7869 18.6346 31.3223 19.5111H28.8898C29.0993 18.6219 29.225 17.6435 29.2542 16.6065ZM29.2542 15.6892C29.225 14.6522 29.0993 13.6738 28.8911 12.7846H31.3235C31.7882 13.661 32.0713 14.6458 32.1373 15.6892H29.2542ZM22.6311 9.37541C22.1169 10.0175 21.6865 10.8685 21.3653 11.8673H19.263C20.1072 10.7309 21.2739 9.85442 22.6311 9.37541ZM19.263 20.4284H21.3653C21.6865 21.4272 22.1169 22.2782 22.6311 22.9202C21.2739 22.4412 20.1072 21.5647 19.263 20.4284ZM27.3689 22.9202C27.8831 22.2782 28.3135 21.4272 28.6347 20.4284H30.737C29.8928 21.5647 28.7261 22.4412 27.3689 22.9202ZM11.6699 13.7782C10.3687 13.7782 9.30859 14.842 9.30859 16.1478C9.30859 17.4536 10.3674 18.5174 11.6699 18.5174C12.9725 18.5174 14.0312 17.4536 14.0312 16.1478C14.0312 14.842 12.9712 13.7782 11.6699 13.7782ZM11.6699 17.6002C10.8727 17.6002 10.2227 16.9479 10.2227 16.1478C10.2227 15.3478 10.8727 14.6955 11.6699 14.6955C12.4672 14.6955 13.1172 15.3478 13.1172 16.1478C13.1172 16.9479 12.4672 17.6002 11.6699 17.6002ZM38.3301 13.7782C37.0288 13.7782 35.9688 14.8407 35.9688 16.1478C35.9688 17.4549 37.0288 18.5174 38.3301 18.5174C39.6313 18.5174 40.6914 17.4549 40.6914 16.1478C40.6914 14.8407 39.6313 13.7782 38.3301 13.7782ZM38.3301 17.6002C37.5315 17.6002 36.8828 16.9479 36.8828 16.1478C36.8828 15.3478 37.5315 14.6955 38.3301 14.6955C39.1286 14.6955 39.7773 15.3478 39.7773 16.1478C39.7773 16.9479 39.1286 17.6002 38.3301 17.6002ZM38.763 30.3666C39.6402 31.2482 39.639 32.6827 38.763 33.5643L31.062 41.3367C30.5923 41.8068 29.974 42.11 29.3177 42.1941L20.1352 43.3369L18.9761 44.5L18.3299 43.8503L19.5994 42.5763C19.6718 42.5037 19.7645 42.4578 19.866 42.4451L29.2047 41.282C29.6592 41.2246 30.0896 41.0131 30.4158 40.687L38.1155 32.9145C38.6373 32.3909 38.6373 31.5386 38.1155 31.0138C37.642 30.5411 36.8866 30.4532 36.1947 31.0405L28.2145 37.5824L28.1865 37.548C27.666 37.9887 27.0021 38.2639 26.2695 38.2639H19.9219V37.3467H26.2695C27.4172 37.3467 28.3516 36.4103 28.3516 35.2574C28.3516 34.8076 27.9872 34.442 27.5391 34.442H17.3828C14.1341 34.442 11.4922 37.0931 11.4922 40.3532C11.4922 40.4755 11.4439 40.5927 11.3589 40.6781L7.55029 44.5L6.9041 43.8503L10.5807 40.1609C10.6822 36.4842 13.6948 33.5248 17.3828 33.5248H27.5391C28.4912 33.5248 29.2656 34.3019 29.2656 35.2574C29.2656 35.3631 29.2453 35.4625 29.2352 35.5644L35.6107 30.3373C35.9497 30.0494 36.4994 29.7029 37.1697 29.7029C37.7702 29.7029 38.3352 29.9385 38.763 30.3666Z" fill="#353535"/>
</svg>

<svg width="50" height="50" fill="none" xmlns="http://www.w3.org/2000/svg"><path d="M44.043 5.5H5.957a.458.458 0 00-.457.459v20.383c0 .254.204.459.457.459h38.086a.458.458 0 00.457-.459V5.96a.458.458 0 00-.457-.459zm-.457 5.047a4.607 4.607 0 01-4.117-4.13h4.117v4.13zm0 .916v9.368a5.52 5.52 0 00-5.032 5.053H11.445a5.517 5.517 0 00-5.032-5.053v-9.368a5.516 5.516 0 005.031-5.047h27.108a5.517 5.517 0 005.033 5.047zM10.532 6.417a4.607 4.607 0 01-4.118 4.13v-4.13h4.118zM6.414 21.748a4.606 4.606 0 014.118 4.136H6.414v-4.136zm33.055 4.136a4.606 4.606 0 014.117-4.136v4.136h-4.117zM25 8.045c-4.452 0-8.074 3.635-8.074 8.103S20.548 24.25 25 24.25s8.074-3.634 8.074-8.102S29.452 8.045 25 8.045zm5.737 3.822h-2.102c-.323-.999-.752-1.85-1.266-2.492a7.175 7.175 0 013.368 2.492zm-12.874 4.74h2.883a14.59 14.59 0 00.363 2.904h-2.433a7.15 7.15 0 01-.813-2.904zm7.594-4.74V9.04c.891.274 1.68 1.332 2.209 2.827h-2.209zm2.49.918c.224.88.36 1.867.393 2.904h-2.883v-2.904h2.49zM24.543 9.04v2.827h-2.209c.528-1.495 1.318-2.551 2.209-2.827zm0 3.745v2.904H21.66c.033-1.037.169-2.024.393-2.904h2.49zm-3.797 2.904h-2.883a7.15 7.15 0 01.814-2.904h2.432a14.59 14.59 0 00-.363 2.904zm.914.918h2.883v2.904h-2.49a13.515 13.515 0 01-.393-2.904zm2.883 3.821v2.827c-.891-.274-1.68-1.33-2.21-2.827h2.21zm.914 2.827v-2.827h2.209c-.53 1.496-1.318 2.552-2.209 2.827zm0-3.744v-2.904h2.883a13.597 13.597 0 01-.393 2.904h-2.49zm3.797-2.904h2.882a7.152 7.152 0 01-.814 2.904H28.89a14.5 14.5 0 00.364-2.904zm0-.918a14.598 14.598 0 00-.363-2.904h2.433a7.15 7.15 0 01.813 2.904h-2.883zm-6.623-6.314c-.514.643-.945 1.493-1.266 2.492h-2.102a7.175 7.175 0 013.368-2.492zm-3.368 11.053h2.102c.322 1 .752 1.85 1.266 2.492a7.176 7.176 0 01-3.368-2.492zm8.106 2.492c.514-.642.945-1.493 1.266-2.492h2.102a7.176 7.176 0 01-3.368 2.492zm-15.7-9.142a2.37 2.37 0 00-2.36 2.37 2.368 2.368 0 002.36 2.37 2.368 2.368 0 002.362-2.37 2.37 2.37 0 00-2.361-2.37zm0 3.822a1.452 1.452 0 010-2.905 1.452 1.452 0 010 2.905zm26.661-3.822a2.368 2.368 0 00-2.361 2.37c0 1.307 1.06 2.37 2.361 2.37a2.368 2.368 0 002.361-2.37c0-1.307-1.06-2.37-2.36-2.37zm0 3.822a1.452 1.452 0 010-2.905 1.452 1.452 0 010 2.905zm.433 12.767a2.273 2.273 0 010 3.197l-7.701 7.773c-.47.47-1.088.773-1.744.857l-9.183 1.143-1.159 1.163-.646-.65 1.27-1.274a.454.454 0 01.266-.13l9.339-1.164a2.094 2.094 0 001.21-.595l7.7-7.773a1.35 1.35 0 000-1.9c-.473-.473-1.228-.56-1.92.027l-7.98 6.541-.029-.034c-.52.44-1.184.716-1.916.716h-6.348v-.917h6.348a2.088 2.088 0 002.082-2.09.815.815 0 00-.813-.815H17.383c-3.249 0-5.89 2.651-5.89 5.911 0 .122-.05.24-.134.325L7.55 44.5l-.646-.65 3.677-3.69c.101-3.676 3.114-6.635 6.802-6.635h10.156c.952 0 1.727.777 1.727 1.732 0 .106-.02.206-.03.307l6.375-5.227c.339-.288.888-.634 1.559-.634.6 0 1.165.236 1.593.664z" fill="#353535"/></svg>
